X:1
T:Title
%%score { ( 1 3 ) | ( 2 4 ) }
L:1/8
M:6/8
K:F
V:1 treble nm="Grand Piano"
V:3 treble 
V:2 bass 
V:4 bass 
V:1
 z3 z2[Q:1/4=100] F | A2 A G2 F | F2 E E2 [EG] | [GB]2 [GB] [FA]2 [EG] | A3- A2 F | A2 A G2 F | %6
 F2 E E2 [EG] | [GB]2 [GB] [FA]2 [EG] |[M:5/8] F-F- F3 |[M:1/8] A |[M:3/4] A2 AA GF | B3 A3 | %12
 [EG]2 [EG][EG] [FA][GB] | A4- AA | c2 c B2 A | [DG]2 [Dd] [DB]2 [DG] | z2 z .A3 | %17
[M:5/8] [A,F]-[A,F]- [A,F]3 |] %18
V:2
 z3 z2 [F,A,C] | [F,C]2 [F,C] [F,B,C]2 [F,A,C] | [C,A,C]2 [C,G,C] [C,G,C]2 [C,C] | %3
 [C,C]2 [C,C] [C,C]2 [C,C] | [F,CF]3- [F,CF]2 [F,A,C] | [F,C]2 [F,C] [F,B,C]2 [F,A,C] | %6
 [C,A,C]2 [C,G,C] [C,G,C]2 [C,C] | [C,C]2 [C,C] [C,C]2 [C,B,] |[M:5/8] [F,A,]-[F,A,]- [F,A,]3 | %9
[M:1/8] [F,CF] |[M:3/4] [F,CF]2 [F,CF][F,CF] [F,B,F][F,A,] | [F,DF]3 [F,CF]3 | %12
 [C,C]2 [C,C][C,C] [C,C][C,C] | [F,CF]4- [F,CF][F,CF] | [F,A,F]2 [F,A,F] [F,DF]2 [F,CF] | %15
 [B,,B,]2 [B,,B,] [B,,B,]2 [B,,B,] | z2 z C z2 |[M:5/8] F,-F,- F,3 |] %18
V:3
 x6 | x6 | x6 | x6 | x6 | x6 | x6 | x6 |[M:5/8] x5 |[M:1/8] x |[M:3/4] x6 | x6 | x6 | x6 | x6 | %15
 x6 | FE .F2 D[B,EG] |[M:5/8] x5 |] %18
V:4
 x6 | x6 | x6 | x6 | x6 | x6 | x6 | x6 |[M:5/8] x5 |[M:1/8] x |[M:3/4] x6 | x6 | x6 | x6 | x6 | %15
 x6 | [C,A,C][C,G,C] [C,A,C] C,2 C, |[M:5/8] x5 |] %18

